X:394
T: Copenhagen Waltz
N: O'Farrell's Pocket Companion v.4 (Sky ed. p.169)
M: 3/4
L: 1/8
Q: 240
R: waltz
K: G
B<d| c<e B<d A<c| B<d G2 B<d| A<c D2 F<A| G<B D2 B<d|
c<e B<d A<c| B<d G2 B<d| A<c D2 F<A| G4 :|
B<d| A<c D2 F<A| B<d G2 B<d| A<c D2 F<A| G<B D2 B<d|
c<e B<d A<c| B<d G2 B<d| A<c D2 F<A| G4 :|
d2| e2d2B2| G4d2| e2d2B2| A4d2|
e2d2B2| G2 GBdB| AGA cFA| G4 :|
